resources/svg/major-label-printer.svg

<svg xmlns="http://www.w3.org/2000/svg" viewBox="0 0 20 20" fill="currentColor"><path fill-rule="evenodd" d="M4 2.5a1.5 1.5 0 0 1 1.5-1.5h9a1.5 1.5 0 0 1 1.5 1.5v3.5h1.5a1.5 1.5 0 0 1 1.5 1.5v10a1.5 1.5 0 0 1-1.5 1.5h-15a1.5 1.5 0 0 1-1.5-1.5v-10a1.5 1.5 0 0 1 1.5-1.5h1.5v-3.5zm2 9.5h8v-9h-8v9zm-2 3a1 1 0 0 1 1-1h3a1 1 0 1 1 0 2h-3a1 1 0 0 1-1-1zm11 1a1 1 0 1 0 0-2 1 1 0 0 0 0 2z"/></svg>

<svg xmlns="http://www.w3.org/2000/svg" viewBox="0 0 20 20" fill="currentColor"><path fill-rule="evenodd" d="M4 2.5A1.5 1.5 0 0 1 5.5 1h9A1.5 1.5 0 0 1 16 2.5V6h1.5A1.5 1.5 0 0 1 19 7.5v10a1.5 1.5 0 0 1-1.5 1.5h-15A1.5 1.5 0 0 1 1 17.5v-10A1.5 1.5 0 0 1 2.5 6H4V2.5zM6 12h8V3H6v9zm-2 3a1 1 0 0 1 1-1h3a1 1 0 1 1 0 2H5a1 1 0 0 1-1-1zm11 1a1 1 0 1 0 0-2 1 1 0 0 0 0 2z"/></svg>
